X: 1
T: The Coachman's Whip
R: reel
M: 4/4
L: 1/8
K: Gmaj
|:d2 BG DGBG | E2 BE dEBE | d2 BG DGBG | FGAc BGGB |
d2 BG DGBG | E2 BE dEBE | FGAB cdef |1 gdcA BGGB :|2 gdcA BGGE ||
|:DB,DE G3 B | d2 BG DGBG | E2 BE dEBE | dBAG EAGE |
DB,DE G3 B | d2 BG DGBG | FGAB cdef |1 gdcA BGGB :|2 gdcA BG G2 ||


Tune 2227	Setting 15598

